X: 20791
T: Artless Annie
%R: air, march
B: James Oswald "The Caledonian Pocket Companion" v.2 p.79 #1
Z: 2019 John Chambers <jc:trillian.mit.edu>
M: C
L: 1/16
K: Bb
|: "_Slow"\
f4 (dcdf) g6 b2 | f2d2Tc2B2 G4F4 |\
f4 (dcdf) g3ab2g2 | f2d2 {f}e2dc B8 ::\
c4 (fedc) d6 a2 | (b2a2)(g2f2) T=e4 (d2c2) |
f4 (afc2) d4 (d'c'b2) | a2f2 {a}g2f=e f8 |\
_a4 Tg3f g6 =a2 | (b2g2)(f2d2) Td4 c4 |\
B4 (Bdf_a) g3=ab2g2 | f2d2 {f}e2dc B8 :|
[M:6/8][L:1/8]\
|:  "_Brisk"\
Bdf g2b | fdB ecA | Bdf bag | fdf B3 :: cfe dba | gaf =edc |
faf dba | gf=e f3 | _agf g2b | fdB c2d | Bba gbg | fdB B3 :|
